static/assets/img/icons/theme/layout/layout-arrange.svg

<svg height="24" viewBox="0 0 24 24" width="24" xmlns="http://www.w3.org/2000/svg"><g fill="none" fill-rule="evenodd"><path d="m0 0h24v24h-24z" opacity="0"/><g fill="#000"><path d="m5.5 4h4c.8284271 0 1.5.67157288 1.5 1.5v1c0 .82842712-.6715729 1.5-1.5 1.5h-4c-.82842712 0-1.5-.67157288-1.5-1.5v-1c0-.82842712.67157288-1.5 1.5-1.5zm9 12h4c.8284271 0 1.5.6715729 1.5 1.5v1c0 .8284271-.6715729 1.5-1.5 1.5h-4c-.8284271 0-1.5-.6715729-1.5-1.5v-1c0-.8284271.6715729-1.5 1.5-1.5z"/><path d="m5.5 10h4c.8284271 0 1.5.6715729 1.5 1.5v7c0 .8284271-.6715729 1.5-1.5 1.5h-4c-.82842712 0-1.5-.6715729-1.5-1.5v-7c0-.8284271.67157288-1.5 1.5-1.5zm9-6h4c.8284271 0 1.5.67157288 1.5 1.5v7c0 .8284271-.6715729 1.5-1.5 1.5h-4c-.8284271 0-1.5-.6715729-1.5-1.5v-7c0-.82842712.6715729-1.5 1.5-1.5z" opacity=".3"/></g></g></svg>

<svg width="24px" height="24px" viewBox="0 0 24 24" version="1.1" xmlns="http://www.w3.org/2000/svg" xmlns:xlink="http://www.w3.org/1999/xlink">
    <title>Icon For Layout-arrange</title>
    <g stroke="none" stroke-width="1" fill="none" fill-rule="evenodd">
        <rect opacity="0" x="0" y="0" width="24" height="24"></rect>
        <path d="M5.5,4 L9.5,4 C10.3284271,4 11,4.67157288 11,5.5 L11,6.5 C11,7.32842712 10.3284271,8 9.5,8 L5.5,8 C4.67157288,8 4,7.32842712 4,6.5 L4,5.5 C4,4.67157288 4.67157288,4 5.5,4 Z M14.5,16 L18.5,16 C19.3284271,16 20,16.6715729 20,17.5 L20,18.5 C20,19.3284271 19.3284271,20 18.5,20 L14.5,20 C13.6715729,20 13,19.3284271 13,18.5 L13,17.5 C13,16.6715729 13.6715729,16 14.5,16 Z" fill="#000000"></path>
        <path d="M5.5,10 L9.5,10 C10.3284271,10 11,10.6715729 11,11.5 L11,18.5 C11,19.3284271 10.3284271,20 9.5,20 L5.5,20 C4.67157288,20 4,19.3284271 4,18.5 L4,11.5 C4,10.6715729 4.67157288,10 5.5,10 Z M14.5,4 L18.5,4 C19.3284271,4 20,4.67157288 20,5.5 L20,12.5 C20,13.3284271 19.3284271,14 18.5,14 L14.5,14 C13.6715729,14 13,13.3284271 13,12.5 L13,5.5 C13,4.67157288 13.6715729,4 14.5,4 Z" fill="#000000" opacity="0.3"></path>
    </g>
</svg>
